assets/icons/saveddark.svg

<svg width="18" height="18" viewBox="0 0 18 18" fill="none" xmlns="http://www.w3.org/2000/svg">
<path d="M16.5004 3.8325V12.3525C16.5004 13.44 15.7204 13.8975 14.7679 13.3725L13.3204 12.5625C13.2004 12.495 13.1254 12.3675 13.1254 12.2325V6.7425C13.1254 4.8375 11.5729 3.285 9.66787 3.285H6.61537C6.33787 3.285 6.14287 2.9925 6.27037 2.7525C6.66037 2.01 7.44037 1.5 8.33287 1.5H14.1679C15.4504 1.5 16.5004 2.55 16.5004 3.8325Z" fill="#8CA3FF"/>
<path d="M9.6675 4.41016H3.8325C2.55 4.41016 1.5 5.46016 1.5 6.74266V15.2627C1.5 16.3502 2.28 16.8077 3.2325 16.2827L6.18 14.6402C6.495 14.4677 7.005 14.4677 7.32 14.6402L10.2675 16.2827C11.22 16.8077 12 16.3502 12 15.2627V6.74266C12 5.46016 10.95 4.41016 9.6675 4.41016ZM8.25 9.56266H7.3125V10.5002C7.3125 10.8077 7.0575 11.0627 6.75 11.0627C6.4425 11.0627 6.1875 10.8077 6.1875 10.5002V9.56266H5.25C4.9425 9.56266 4.6875 9.30766 4.6875 9.00016C4.6875 8.69266 4.9425 8.43766 5.25 8.43766H6.1875V7.50016C6.1875 7.19266 6.4425 6.93766 6.75 6.93766C7.0575 6.93766 7.3125 7.19266 7.3125 7.50016V8.43766H8.25C8.5575 8.43766 8.8125 8.69266 8.8125 9.00016C8.8125 9.30766 8.5575 9.56266 8.25 9.56266Z" fill="#8CA3FF"/>
</svg>

<svg width="18" height="18" viewBox="0 0 18 18" fill="none" xmlns="http://www.w3.org/2000/svg"><path d="M16.5 3.83v8.52c0 1.09-.78 1.55-1.73 1.02l-1.45-.8a.4.4 0 0 1-.2-.34V6.74c0-1.9-1.55-3.45-3.45-3.45H6.62c-.28 0-.48-.3-.35-.54A2.3 2.3 0 0 1 8.33 1.5h5.84a2.34 2.34 0 0 1 2.33 2.33" fill="#8CA3FF"/><path d="M9.67 4.41H3.83A2.34 2.34 0 0 0 1.5 6.74v8.52c0 1.09.78 1.55 1.73 1.02l2.95-1.64c.32-.17.83-.17 1.14 0l2.95 1.64c.95.53 1.73.07 1.73-1.02V6.74a2.34 2.34 0 0 0-2.33-2.33M8.25 9.56h-.94v.94c0 .3-.25.56-.56.56a.57.57 0 0 1-.56-.56v-.94h-.94A.57.57 0 0 1 4.69 9c0-.3.25-.56.56-.56h.94V7.5c0-.3.25-.56.56-.56.3 0 .56.25.56.56v.94h.94c.3 0 .56.25.56.56 0 .3-.25.56-.56.56" fill="#8CA3FF"/></svg>
